packages/ui-icons/src/Basic/24/Autopay_24.svg

<svg xmlns="http://www.w3.org/2000/svg" viewBox="0 0 32 32"><path d="M11 19v2h2v2h2v-2h4v-2h-4v-2h2a4 4 0 1 0 0-8h-4v6h-2v2h2v2Zm4-8h2a2 2 0 0 1 0 4h-2Z"/><path d="M28.08 17v-1A12 12 0 0 0 7.53 7.53l1.41 1.41A10 10 0 0 1 26.08 16v1.13l-1.38-1.87-1.41 1.41 3.08 3.08h1.25l3.08-3.08-1.41-1.41ZM4 16a12 12 0 0 0 20.56 8.51l-1.41-1.41A10 10 0 0 1 6 16v-1l1.29 1.71L8.7 15.3l-3.07-3.09H4.37l-3.08 3.08L2.7 16.7 4 15Z"/></svg>

<svg id="Ready" xmlns="http://www.w3.org/2000/svg" viewBox="0 0 32 32"><title>Megaicons_work_24_1.8_cp</title><path d="M11,19v2h2v2h2V21h4V19H15V17h2a4,4,0,1,0,0-8H13v6H11v2h2v2Zm4-8h2a2,2,0,0,1,0,4H15Z"/><path d="M28.08,17V16A12,12,0,0,0,7.53,7.53L8.94,8.94A10,10,0,0,1,26.08,16v1.13l-1.38-1.87-1.41,1.41,3.08,3.08h1.25l3.08-3.08-1.41-1.41Z"/><path d="M4,16a12,12,0,0,0,20.56,8.51l-1.41-1.41A10,10,0,0,1,6,16V15l1.29,1.71,1.41-1.41L5.63,12.21H4.37L1.29,15.29l1.41,1.41L4,15Z"/></svg>
